assets/src/images/visa.svg

<svg width="750" height="471" viewBox="0 0 750 471" version="1.1" xmlns="http://www.w3.org/2000/svg" xmlns:xlink="http://www.w3.org/1999/xlink">
    <!-- Generator: Sketch 48.2 (47327) - http://www.bohemiancoding.com/sketch -->
    <desc>Created with Sketch.</desc>
    <defs></defs>
    <g id="Page-1" stroke="none" stroke-width="1" fill="none" fill-rule="evenodd">
        <g id="visa" fill-rule="nonzero">
            <rect id="Rectangle-1" fill="#0E4595" x="0" y="0" width="750" height="471" rx="40"></rect>
            <polygon id="Shape" fill="#FFFFFF" points="278.1975 334.2275 311.5585 138.4655 364.9175 138.4655 331.5335 334.2275"></polygon>
            <path d="M524.3075,142.6875 C513.7355,138.7215 497.1715,134.4655 476.4845,134.4655 C423.7605,134.4655 386.6205,161.0165 386.3045,199.0695 C386.0075,227.1985 412.8185,242.8905 433.0585,252.2545 C453.8275,261.8495 460.8105,267.9695 460.7115,276.5375 C460.5795,289.6595 444.1255,295.6545 428.7885,295.6545 C407.4315,295.6545 396.0855,292.6875 378.5625,285.3785 L371.6865,282.2665 L364.1975,326.0905 C376.6605,331.5545 399.7065,336.2895 423.6355,336.5345 C479.7245,336.5345 516.1365,310.2875 516.5505,269.6525 C516.7515,247.3835 502.5355,230.4355 471.7515,216.4645 C453.1005,207.4085 441.6785,201.3655 441.7995,192.1955 C441.7995,184.0585 451.4675,175.3575 472.3565,175.3575 C489.8055,175.0865 502.4445,178.8915 512.2925,182.8575 L517.0745,185.1165 L524.3075,142.6875" id="path13" fill="#FFFFFF"></path>
            <path d="M661.6145,138.4655 L620.3835,138.4655 C607.6105,138.4655 598.0525,141.9515 592.4425,154.6995 L513.1975,334.1025 L569.2285,334.1025 C569.2285,334.1025 578.3905,309.9805 580.4625,304.6845 C586.5855,304.6845 641.0165,304.7685 648.7985,304.7685 C650.3945,311.6215 655.2905,334.1025 655.2905,334.1025 L704.8025,334.1025 L661.6145,138.4655 Z M596.1975,264.8725 C600.6105,253.5935 617.4565,210.1495 617.4565,210.1495 C617.1415,210.6705 621.8365,198.8155 624.5315,191.4655 L628.1385,208.3435 C628.1385,208.3435 638.3555,255.0725 640.4905,264.8715 L596.1975,264.8715 L596.1975,264.8725 Z" id="Path" fill="#FFFFFF"></path>
            <path d="M232.9025,138.4655 L180.6625,271.9605 L175.0965,244.8315 C165.3715,213.5575 135.0715,179.6755 101.1975,162.7125 L148.9645,333.9155 L205.4195,333.8505 L289.4235,138.4655 L232.9025,138.4655" id="path16" fill="#FFFFFF"></path>
            <path d="M131.9195,138.4655 L45.8785,138.4655 L45.1975,142.5385 C112.1365,158.7425 156.4295,197.9015 174.8155,244.9525 L156.1065,154.9925 C152.8765,142.5965 143.5085,138.8975 131.9195,138.4655" id="path18" fill="#F2AE14"></path>
        </g>
    </g>
</svg>

<svg width="750" height="471" xmlns="http://www.w3.org/2000/svg"><g fill="none"><rect fill="#0E4595" width="750" height="471" rx="40"/><path fill="#FFF" d="M278.197 334.228l33.361-195.763h53.36l-33.385 195.763zm246.111-191.54c-10.572-3.966-27.137-8.222-47.823-8.222-52.725 0-89.865 26.55-90.18 64.603-.298 28.13 26.513 43.822 46.753 53.186 20.77 9.594 27.752 15.714 27.654 24.283-.132 13.121-16.587 19.116-31.923 19.116-21.357 0-32.703-2.966-50.226-10.276l-6.876-3.111-7.49 43.824c12.464 5.464 35.51 10.198 59.438 10.443 56.09 0 92.501-26.246 92.916-66.882.2-22.268-14.016-39.216-44.8-53.188-18.65-9.055-30.072-15.099-29.951-24.268 0-8.137 9.667-16.839 30.556-16.839 17.45-.27 30.089 3.535 39.937 7.5l4.781 2.26 7.234-42.43m137.307-4.222h-41.231c-12.774 0-22.332 3.487-27.942 16.234l-79.245 179.404h56.032s9.161-24.123 11.233-29.418c6.124 0 60.554.084 68.337.084 1.596 6.853 6.491 29.334 6.491 29.334h49.513l-43.188-195.638zm-65.418 126.407c4.413-11.279 21.26-54.723 21.26-54.723-.316.522 4.38-11.334 7.075-18.684l3.606 16.879s10.217 46.728 12.352 56.528h-44.293zM232.903 138.465l-52.24 133.496-5.567-27.13c-9.725-31.273-40.025-65.155-73.898-82.118l47.766 171.203 56.456-.065 84.004-195.386h-56.521"/><path d="M131.92 138.465H45.879l-.681 4.073c66.938 16.204 111.231 55.363 129.618 102.414l-18.71-89.96c-3.23-12.395-12.597-16.094-24.186-16.526" fill="#F2AE14"/></g></svg>
